X: 11544
T: Eddie's Monaghan Twig
R: reel
M: 4/4
K: Dmajor
A|B2 AG FDGE|FDGF E3 A|B2 AG FDGE|FAGE D3 A|
B2 AG FDGE|FDGF E4|A2 (3Bcd ecAG|FAGE D3 A||
BABc BAGE|edcd e3 f|edcd ecAG|FAGE D3 A|
BABc BAGE|edcd e3 f|edcd ecAG|F2 GE D3||

